src/About/images/github.svg

﻿<svg xmlns="http://www.w3.org/2000/svg" xmlns:xlink="http://www.w3.org/1999/xlink" viewBox="0 0 50 50" version="1.1" width="50" height="50" style="fill: #fefeff;">
<g id="surface1">
<path style=" " d="M 25 1 C 11.800781 1 1 11.800781 1 25 C 1 35.199219 7.398438 43.898438 16.300781 47.398438 C 17.199219 47.199219 18 46.398438 18 45.398438 L 18 41 L 15.398438 41 C 13.5 41 11.898438 40.101563 11.101563 38.699219 C 10.898438 38.300781 10.699219 37.800781 10.5 37.300781 C 10.101563 36.199219 9.601563 35 8.601563 34.300781 C 8.199219 34 8 33.398438 8.101563 32.898438 C 8.300781 32.398438 8.800781 32 9.699219 32.101563 C 10.699219 32.199219 12.199219 33.300781 13.101563 34.5 C 13.898438 35.5 14.5 36.101563 15.699219 36.101563 L 16 36.101563 C 16.898438 36.101563 19.101563 36.101563 19.5 35.699219 C 19.800781 35.300781 20 35 20.300781 34.699219 C 14.300781 33.5 10.898438 30 10.898438 24.699219 C 10.898438 22.898438 11.398438 21.101563 12.5 19.5 C 12.101563 18 11.199219 14.101563 13.101563 12.398438 L 13.398438 12.101563 L 13.800781 12.101563 C 16.398438 12.101563 18.300781 13.199219 19.5 14.101563 C 23 12.800781 27 12.800781 30.5 14.101563 C 31.601563 13.199219 33.5 12.101563 36.199219 12.101563 L 36.601563 12.101563 L 36.898438 12.398438 C 38.800781 14.199219 37.898438 18 37.5 19.5 C 38.5 21.101563 39.101563 22.898438 39.101563 24.699219 C 39.101563 30 35.699219 33.5 29.800781 34.699219 C 31.300781 36.300781 32.101563 38.699219 32.101563 40.601563 L 32.101563 45.5 C 32.101563 46.5 32.800781 47.300781 33.800781 47.5 C 42.601563 43.898438 49 35.199219 49 25 C 49 11.800781 38.199219 1 25 1 Z "/>
</g>
</svg>

﻿<?xml version="1.0" encoding="UTF-8"?>
<svg fill="#fefeff" version="1.1" viewBox="0 0 50 50" xmlns="http://www.w3.org/2000/svg">
<path d="m25 1c-13.199 0-24 10.801-24 24 0 10.199 6.3984 18.898 15.301 22.398 0.89844-0.19922 1.6992-1 1.6992-2v-4.3984h-2.6016c-1.8984 0-3.5-0.89844-4.2969-2.3008-0.20312-0.39844-0.40234-0.89844-0.60156-1.3984-0.39844-1.1016-0.89844-2.3008-1.8984-3-0.40234-0.30078-0.60156-0.90234-0.5-1.4023 0.19922-0.5 0.69922-0.89844 1.5977-0.79688 1 0.097656 2.5 1.1992 3.4023 2.3984 0.79688 1 1.3984 1.6016 2.5977 1.6016h0.30078c0.89844 0 3.1016 0 3.5-0.40234 0.30078-0.39844 0.5-0.69922 0.80078-1-6-1.1992-9.4023-4.6992-9.4023-10 0-1.8008 0.5-3.5977 1.6016-5.1992-0.39844-1.5-1.3008-5.3984 0.60156-7.1016l0.29688-0.29688h0.40234c2.5977 0 4.5 1.0977 5.6992 2 3.5-1.3008 7.5-1.3008 11 0 1.1016-0.90234 3-2 5.6992-2h0.40234l0.29688 0.29688c1.9023 1.8008 1 5.6016 0.60156 7.1016 1 1.6016 1.6016 3.3984 1.6016 5.1992 0 5.3008-3.4023 8.8008-9.3008 10 1.5 1.6016 2.3008 4 2.3008 5.9023v4.8984c0 1 0.69922 1.8008 1.6992 2 8.8008-3.6016 15.199-12.301 15.199-22.5 0-13.199-10.801-24-24-24z"/>
</svg>
